X:1
T:Title
%%score { 1 | 2 }
L:1/8
M:3/4
K:Ab
V:1 treble nm="Grand Piano"
V:2 bass 
V:1
 z2 z2[Q:1/4=96] [Ec]>[CE] | [CF]2 [CE]2 [Ec]>[CE] | [CF]2 [CE]2 [CA]>[CF] | [B,DG]2 [Ge]2 B>e | %4
[M:2/4] e4 |[M:1/4] [=Ae]>[CFc] |[M:3/4] [Fd]2 [DF]2 [Gd]>B | c2 [CE]2 A>F | G2 [Ec]2 [F=d]>[FG] | %9
[M:2/4] [Ec]4 |[M:1/4] [Gc]>[GB] |[M:3/4] [Ge]2 [DGB]2 [CEB]>[CEA] | [Ec]4 [A,CA]>[CF] | %13
 [B,EG]2 [Ge]2 B>e |[M:2/4] e4 |[M:1/4] [Gc]>[GB] |[M:3/4] [Ge]2 [DGB]2 [CEB]>[CEA] | %17
 [Ec]4 [CA]>[CF] | [DG]2 E2 B>E |[M:2/4] [CA]4 |] %20
V:2
 z2 z2 [A,,A,]>[A,,A,] | [A,,A,]2 [A,,A,]2 [A,,A,]>[A,,A,] | [A,,A,]2 [A,,A,]2 [A,,A,]>A,, | %3
 E,2 [E,D]2[K:treble] [G,DE]>[B,DG] |[M:2/4] [A,CA]4 |[M:1/4][K:bass] [F,C]>=A, | %6
[M:3/4] B,2 B,,2 [E,B,]>[G,B,E] | [A,E]2 [A,,A,]2 [A,C]>[A,C] | [G,CE]2 [C,G,]2 [G,_C]>[G,C] | %9
[M:2/4] [C,C]4 |[M:1/4] [E,D]>[G,D] |[M:3/4] [B,D]2 E,2 A,,>E, | A,4 A,,>A,, | %13
 E,2 [E,D]2[K:treble] [G,DE]>[B,DG] |[M:2/4] [A,CA]4 |[M:1/4][K:bass] [E,D]>[G,D] | %16
[M:3/4] [B,D]2 E,2 A,,>E, | A,4 [A,,A,]>[A,,A,] | [B,,E,]2 [E,G,D]2 [E,G,D]>[E,G,D] | %19
[M:2/4] [A,,A,]4 |] %20

